icons/bag-info.svg

<svg xmlns="http://www.w3.org/2000/svg" width="24" height="24" viewBox="0 0 24 24">
  <path d="M14,2 C15.5976809,2 16.9036609,3.24891996 16.9949073,4.82372721 L17,5 L17,6 L20,6 C21.1045695,6 22,6.8954305 22,8 L22,20 C22,21.1045695 21.1045695,22 20,22 L4,22 C2.8954305,22 2,21.1045695 2,20 L2,8 C2,6.8954305 2.8954305,6 4,6 L7,6 L7,5 C7,3.40231912 8.24891996,2.09633912 9.82372721,2.00509269 L10,2 L14,2 Z M12,13 C11.4477153,13 11,13.4477153 11,14 L11,17 C11,17.5522847 11.4477153,18 12,18 C12.5522847,18 13,17.5522847 13,17 L13,14 C13,13.4477153 12.5522847,13 12,13 Z M12,10 C11.4477153,10 11,10.4477153 11,11 C11,11.5522847 11.4477153,12 12,12 C12.5522847,12 13,11.5522847 13,11 C13,10.4477153 12.5522847,10 12,10 Z M14,4 L10,4 C9.48716416,4 9.06449284,4.38604019 9.00672773,4.88337887 L9,5 L9,6 L15,6 L15,5 C15,4.48716416 14.6139598,4.06449284 14.1166211,4.00672773 L14,4 Z"/>
</svg>

<svg xmlns="http://www.w3.org/2000/svg" viewBox="0 0 24 24">
  <path d="M14 2a3 3 0 0 1 3 2.82V6h3a2 2 0 0 1 2 2v12a2 2 0 0 1-2 2H4a2 2 0 0 1-2-2V8c0-1.1.9-2 2-2h3V5a3 3 0 0 1 2.82-3H14zm-2 11a1 1 0 0 0-1 1v3a1 1 0 0 0 2 0v-3a1 1 0 0 0-1-1zm0-3a1 1 0 1 0 0 2 1 1 0 0 0 0-2zm2-6h-4a1 1 0 0 0-1 .88V6h6V5a1 1 0 0 0-.88-1H14z"/>
</svg>
